X:1
T:It Cleanseth Me
T:It Cleanseth Me
T:A. F. Myers
T:F. L. Synder, 1899
T:Public Domain Courtesy of the Cyber Hymnal™
T:Public Domain Courtesy of the Cyber Hymnal™
C:A. F. Myers
Z:Public Domain
Z:Courtesy of the Cyber Hymnal™
%%score 1 ( 2 3 )
L:1/8
Q:1/4=107
M:4/4
K:Bb
V:1 treble 
V:2 bass 
V:3 bass 
V:1
 [DF]2 | [DB]3 [DB] [Ec][EB][EB][EG] | [DF]2 [DB]2 [DF]2 [DF]2 | [EF]2 [Ec]2 [Ec]2 [EF]2 | %4
w: 1.~There|is a stream that flows from|Cal- va- ry, A|crim- son tide so|
w: 2.~Its|sav- ing vir- tues ev- er|are the same, It|cleans- eth still, and|
w: 3.~No|o- ther foun- tain can for|sin a- tone But|Je- sus’ blood, O|
 [DF]2 [Fd]2 [Fd]2 [DF]2 | [EG]3 [EG] [EG][GB][FA][EG] | [DF]2 [DB]2 [DF]2 [DB]2 | %7
w: deep and wide. It|wash- es whit- er than the|pur- est snow; It|
w: al- ways will. Poor|sin- ners who will seek the|Sav- ior’s face Shall|
w: pre- cious flood! And|who- so- ev- er will may|plunge there- in, And|
 [Fd]3 [DB] [Ec]2 [EA]2 | [DB]6 z2 ||"^Refrain" [Fd]3 [Ec] [DB][DF][DF][DF] | %10
w: cleans- eth me, I|know.||
w: know His wond- rous|grace.|Hal- le- lu- jah! ’tis His|
w: be made free from|sin.||
 [EG][GB][FA][EG] [DF]2 [DF][DF] | [EF][EA][EA][EA] [EA]2 [EG][EF] | [DF][DB][DB][EB] [DB]2 [DF]2 | %13
w: |||
w: blood that cleans- eth me, ’Tis His|grace that makes me free. And my|bro- ther, ’tis for thee. Oh,|
w: |||
 [Fd]3 [Ec] [DB][DF][DF][DF] | [EG][GB][FA][EG] [DF]2 [DF][DF] | [DB][DB][DB][DB] [Ec]2 [EA]2 | %16
w: |||
w: hal- le- lu- jah! ’tis sal-|va- tion full and free; And it|cleans- eth, yes, it cleans- eth|
w: |||
 [DB]6 |] %17
w: |
w: me.|
w: |
V:2
 [B,,B,]2 | [B,,F,]3 [B,,F,] [E,G,][E,G,][E,G,][E,B,] | [B,,B,]2 [B,,F,]2 [B,,B,]2 [B,,B,]2 | %3
 [F,A,]2 [F,A,]2 [F,A,]2 [F,A,]2 | [B,,B,]2 [B,,B,]2 [B,,B,]2 [B,,B,]2 | %5
 [E,B,]3 [E,B,] [E,B,][E,B,][E,B,][E,B,] | [B,,B,]2 [B,,F,]2 [B,,B,]2 [B,,B,]2 | %7
 [B,,B,]3 [B,,B,] [F,A,]2 F,2 | [B,,F,]6 z2 || [B,,B,]3 [B,,F,] [B,,F,][B,,B,][B,,B,][B,,B,] | %10
 [E,B,][E,B,][E,B,][E,B,] [B,,B,]2 [B,,B,][B,,B,] | [F,A,][F,C][F,C][F,C] [F,C]2 [F,B,][F,A,] | %12
 [B,,B,][B,,F,][B,,F,][B,,G,] [B,,F,]2 [B,,B,]2 | [B,,B,]3 [B,,F,] [B,,F,][B,,B,][B,,B,][B,,B,] | %14
 [E,B,][E,B,][E,B,][E,B,] [B,,B,]2 [B,,B,][B,,B,] | [G,B,][G,B,][G,B,][G,B,] [F,A,]2 F,2 | %16
 [B,,F,]6 |] %17
V:3
 x2 | x8 | x8 | x8 | x8 | x8 | x8 | x6 F,2 | x8 || x8 | x8 | x8 | x8 | x8 | x8 | x6 F,2 | x6 |] %17

